svgs/systemui_tuner.svg

<svg xmlns="http://www.w3.org/2000/svg" width="192" height="192" viewBox="0 0 192 192"><defs><style>.cls-1{fill:none;stroke:#000;stroke-linecap:round;stroke-linejoin:round;stroke-width:12px}</style></defs><path class="cls-1" d="M168 145 87.38 64.33a6.73 6.73 0 0 1-2-4.63Q84.79 22.38 50.62 22c-3 0-8.54 7.65-6.4 9.78L56 43.53a3.39 3.39 0 0 1 0 4.79L48.32 56a3.39 3.39 0 0 1-4.79 0L31.78 44.22C29.65 42.08 22 47.6 22 50.62q.38 34.16 37.7 34.78a6.73 6.73 0 0 1 4.63 2L145 168a6.77 6.77 0 0 0 9.57 0L168 154.54a6.77 6.77 0 0 0 0-9.54Z"/><path d="m35.44 168.37-11.81-11.81a5.45 5.45 0 0 1-.06-7.72l32.91-32.9a5.45 5.45 0 0 1 7.72 0L76 127.8a5.45 5.45 0 0 1 0 7.72l-32.9 32.91a5.45 5.45 0 0 1-7.66-.06Z" style="fill-rule:evenodd;fill:none;stroke:#000;stroke-linecap:round;stroke-linejoin:round;stroke-width:12px"/><path class="cls-1" d="m129.8 76.77 11.06-11.07a6 6 0 0 1 3.34-1.7l11.8-1.75a3 3 0 0 0 2.25-1.68l11.45-24.25a3 3 0 0 0-.58-3.39l-10.05-10.06a3 3 0 0 0-3.39-.58l-24.25 11.45a3 3 0 0 0-1.68 2.26L128 47.8a6 6 0 0 1-1.68 3.34L115.23 62.2a3 3 0 0 0 0 4.22l10.35 10.35a3 3 0 0 0 4.22 0Z"/></svg>

<svg xmlns="http://www.w3.org/2000/svg" width="192" height="192" viewBox="0 0 192 192"><defs><style>.cls-1,.cls-2{fill:none;stroke:#000;stroke-linecap:round;stroke-linejoin:round;stroke-width:12px;}.cls-2{fill-rule:evenodd;}</style></defs><path class="cls-1" d="M168,145,87.38,64.33a6.73,6.73,0,0,1-2-4.63Q84.79,22.38,50.62,22c-3,0-8.54,7.65-6.4,9.78L56,43.53a3.39,3.39,0,0,1,0,4.79L48.32,56a3.39,3.39,0,0,1-4.79,0L31.78,44.22C29.65,42.08,22,47.6,22,50.62q.38,34.16,37.7,34.78a6.73,6.73,0,0,1,4.63,2L145,168a6.77,6.77,0,0,0,9.57,0L168,154.54A6.77,6.77,0,0,0,168,145Z"/><path class="cls-2" d="M35.44,168.37,23.63,156.56a5.45,5.45,0,0,1-.06-7.72l32.91-32.9a5.45,5.45,0,0,1,7.72,0L76,127.8a5.45,5.45,0,0,1,0,7.72l-32.9,32.91A5.45,5.45,0,0,1,35.44,168.37Z"/><path class="cls-1" d="M129.8,76.77,140.86,65.7A6,6,0,0,1,144.2,64L156,62.25a3,3,0,0,0,2.25-1.68l11.45-24.25a3,3,0,0,0-.58-3.39L159.07,22.87a3,3,0,0,0-3.39-.58L131.43,33.74A3,3,0,0,0,129.75,36L128,47.8a6,6,0,0,1-1.68,3.34L115.23,62.2a3,3,0,0,0,0,4.22l10.35,10.35A3,3,0,0,0,129.8,76.77Z"/></svg>
